icons/Device/usb-fill.svg

<svg viewBox="0 0 24 24" xmlns="http://www.w3.org/2000/svg"><path d="M12 1L15 6H13V13.381L16 11.882L15.999 11H15V7H19V11H17.999L18 13.118L13 15.618L13.0009 17.171C14.1656 17.5831 15 18.6941 15 20C15 21.6569 13.6569 23 12 23C10.3431 23 9 21.6569 9 20C9 18.813 9.68934 17.7871 10.6895 17.3006L6 14L5.99892 11.7318C5.40172 11.3858 5 10.7398 5 10C5 8.89543 5.89543 8 7 8C8.10457 8 9 8.89543 9 10C9 10.7403 8.59783 11.3866 8.00007 11.7324L8 13L11 15.086V6H9L12 1Z"/></svg>

<svg xmlns="http://www.w3.org/2000/svg" viewBox="0 0 24 24">
    <g>
        <path fill="none" d="M0 0H24V24H0z"/>
        <path d="M12 1l3 5h-2v7.381l3-1.499-.001-.882H15V7h4v4h-1.001L18 13.118l-5 2.5v1.553c1.166.412 2 1.523 2 2.829 0 1.657-1.343 3-3 3s-3-1.343-3-3c0-1.187.69-2.213 1.69-2.7L6 14l-.001-2.268C5.402 11.386 5 10.74 5 10c0-1.105.895-2 2-2s2 .895 2 2c0 .74-.402 1.387-1 1.732V13l3 2.086V6H9l3-5z"/>
    </g>
</svg>
